assets/img/braze_icons/alarm-clock.svg

<svg fill="none" height="24" viewBox="0 0 24 24" width="24" xmlns="http://www.w3.org/2000/svg"><g fill="#801ed7"><path d="m5.70711 3.70711c.39052-.39053.39052-1.02369 0-1.41422-.39053-.39052-1.02369-.39052-1.41422 0l-3 3c-.390521.39053-.390521 1.02369 0 1.41422.39053.39052 1.02369.39052 1.41422 0z"/><path d="m19.7071 2.29289c-.3905-.39052-1.0237-.39052-1.4142 0-.3905.39053-.3905 1.02369 0 1.41422l3 3c.3905.39052 1.0237.39052 1.4142 0 .3905-.39053.3905-1.02369 0-1.41422z"/><path clip-rule="evenodd" d="m12 22c2.0512 0 4.0302-.7002 5.6175-1.9683l1.6754 1.6754c.3905.3905 1.0237.3905 1.4142 0s.3905-1.0237 0-1.4142l-1.6754-1.6754c1.2681-1.5873 1.9683-3.5663 1.9683-5.6175 0-2.3869-.9482-4.67613-2.636-6.36396-1.6879-1.68783-3.9771-2.63604-6.364-2.63604-2.38695 0-4.67613.94821-6.36396 2.63604s-2.63604 3.97706-2.63604 6.36396c0 2.0512.70023 4.0302 1.96832 5.6175l-1.67543 1.6754c-.39052.3905-.39052 1.0237 0 1.4142.39053.3905 1.02369.3905 1.41422 0l1.67542-1.6754c1.58724 1.2681 3.56626 1.9683 5.61747 1.9683zm1-13c0-.55228-.4477-1-1-1s-1 .44772-1 1v4c0 .2652.1054.5196.2929.7071l2 2c.3905.3905 1.0237.3905 1.4142 0s.3905-1.0237 0-1.4142l-1.7071-1.7071z" fill-rule="evenodd"/></g></svg>

<svg width="24" height="24" viewBox="0 0 24 24" fill="none" xmlns="http://www.w3.org/2000/svg">
<path d="M5.70711 3.70711C6.09763 3.31658 6.09763 2.68342 5.70711 2.29289C5.31658 1.90237 4.68342 1.90237 4.29289 2.29289L1.29289 5.29289C0.902369 5.68342 0.902369 6.31658 1.29289 6.70711C1.68342 7.09763 2.31658 7.09763 2.70711 6.70711L5.70711 3.70711Z" fill="#801ED7"/>
<path d="M19.7071 2.29289C19.3166 1.90237 18.6834 1.90237 18.2929 2.29289C17.9024 2.68342 17.9024 3.31658 18.2929 3.70711L21.2929 6.70711C21.6834 7.09763 22.3166 7.09763 22.7071 6.70711C23.0976 6.31658 23.0976 5.68342 22.7071 5.29289L19.7071 2.29289Z" fill="#801ED7"/>
<path fill-rule="evenodd" clip-rule="evenodd" d="M12 22C14.0512 22 16.0302 21.2998 17.6175 20.0317L19.2929 21.7071C19.6834 22.0976 20.3166 22.0976 20.7071 21.7071C21.0976 21.3166 21.0976 20.6834 20.7071 20.2929L19.0317 18.6175C20.2998 17.0302 21 15.0512 21 13C21 10.6131 20.0518 8.32387 18.364 6.63604C16.6761 4.94821 14.3869 4 12 4C9.61305 4 7.32387 4.94821 5.63604 6.63604C3.94821 8.32387 3 10.6131 3 13C3 15.0512 3.70023 17.0302 4.96832 18.6175L3.29289 20.2929C2.90237 20.6834 2.90237 21.3166 3.29289 21.7071C3.68342 22.0976 4.31658 22.0976 4.70711 21.7071L6.38253 20.0317C7.96977 21.2998 9.94879 22 12 22ZM13 9C13 8.44772 12.5523 8 12 8C11.4477 8 11 8.44772 11 9V13C11 13.2652 11.1054 13.5196 11.2929 13.7071L13.2929 15.7071C13.6834 16.0976 14.3166 16.0976 14.7071 15.7071C15.0976 15.3166 15.0976 14.6834 14.7071 14.2929L13 12.5858V9Z" fill="#801ED7"/>
</svg>
